icons/midnadark/mimetypes/16/unknown.svg

<?xml version="1.0" encoding="UTF-8" standalone="no"?>
<!-- Created with Inkscape (http://www.inkscape.org/) -->

<svg
   xmlns:osb="http://www.openswatchbook.org/uri/2009/osb"
   xmlns:dc="http://purl.org/dc/elements/1.1/"
   xmlns:cc="http://creativecommons.org/ns#"
   xmlns:rdf="http://www.w3.org/1999/02/22-rdf-syntax-ns#"
   xmlns:svg="http://www.w3.org/2000/svg"
   xmlns="http://www.w3.org/2000/svg"
   xmlns:sodipodi="http://sodipodi.sourceforge.net/DTD/sodipodi-0.dtd"
   xmlns:inkscape="http://www.inkscape.org/namespaces/inkscape"
   width="16"
   height="16"
   id="svg2"
   version="1.1"
   inkscape:version="0.91 r13725"
   viewBox="0 0 16 16"
   sodipodi:docname="unknown.svg">
  <defs
     id="defs4">
    <linearGradient
       osb:paint="gradient"
       id="linearGradient4207">
      <stop
         id="stop3371"
         offset="0"
         style="stop-color:#3498db;stop-opacity:1;" />
      <stop
         id="stop3373"
         offset="1"
         style="stop-color:#3498db;stop-opacity:0;" />
    </linearGradient>
  </defs>
  <sodipodi:namedview
     id="base"
     pagecolor="#9c9c9c"
     bordercolor="#666666"
     borderopacity="1.0"
     inkscape:pageopacity="0"
     inkscape:pageshadow="2"
     inkscape:zoom="15.839192"
     inkscape:cx="-13.425297"
     inkscape:cy="10.759503"
     inkscape:document-units="px"
     inkscape:current-layer="g4174"
     showgrid="false"
     inkscape:showpageshadow="false"
     borderlayer="true"
     inkscape:window-width="1366"
     inkscape:window-height="687"
     inkscape:window-x="0"
     inkscape:window-y="0"
     inkscape:window-maximized="1"
     units="px"
     inkscape:snap-bbox="true"
     inkscape:object-nodes="true"
     showguides="false">
    <inkscape:grid
       type="xygrid"
       id="grid4101" />
    <sodipodi:guide
       position="2,14.000017"
       orientation="12,0"
       id="guide4071" />
    <sodipodi:guide
       position="2,2.0000174"
       orientation="0,12"
       id="guide4073" />
    <sodipodi:guide
       position="14,2.0000174"
       orientation="-12,0"
       id="guide4075" />
    <sodipodi:guide
       position="14,14.000017"
       orientation="0,-12"
       id="guide4077" />
  </sodipodi:namedview>
  <metadata
     id="metadata7">
    <rdf:RDF>
      <cc:Work
         rdf:about="">
        <dc:format>image/svg+xml</dc:format>
        <dc:type
           rdf:resource="http://purl.org/dc/dcmitype/StillImage" />
        <dc:title />
      </cc:Work>
    </rdf:RDF>
  </metadata>
  <g
     inkscape:label="Capa 1"
     inkscape:groupmode="layer"
     id="layer1"
     transform="translate(0,-1036.3622)">
    <g
       transform="translate(-412.88298,512.00351)"
       id="layer1-4"
       inkscape:label="Capa 1">
      <g
         style="fill:#ffffff;fill-opacity:1"
         inkscape:label="Capa 1"
         id="layer1-7"
         transform="translate(392.57143,-514.5642)" />
      <g
         transform="translate(341.79698,500.25245)"
         id="g4240">
        <rect
           style="opacity:1;fill:#ffffff;fill-opacity:0.40983605;stroke:none"
           id="rect4236-8"
           width="44"
           height="1"
           x="10"
           y="3" />
        <g
           transform="translate(-392.98822,-511.27795)"
           id="layer1-1"
           inkscape:label="Capa 1"
           inkscape:transform-center-x="5.4653607"
           inkscape:transform-center-y="-9.4924686">
          <g
             transform="translate(431.03861,-501.23654)"
             id="layer1-9"
             inkscape:label="Capa 1">
            <g
               transform="translate(-379.21018,512.89536)"
               id="layer1-48"
               inkscape:label="Capa 1">
              <g
                 style="fill:#ffffff;fill-opacity:1"
                 inkscape:label="Capa 1"
                 id="layer1-7-7"
                 transform="translate(392.57143,-514.5642)" />
              <g
                 transform="translate(341.79698,500.25245)"
                 id="g4240-2">
                <g
                   transform="translate(-392.98822,-511.27795)"
                   id="layer1-1-8"
                   inkscape:label="Capa 1"
                   inkscape:transform-center-x="5.4653607"
                   inkscape:transform-center-y="-9.4924686">
                  <g
                     style="stroke:#373e44;stroke-opacity:1"
                     transform="translate(0.41988239,0.03484499)"
                     inkscape:label="Capa 1"
                     id="layer1-3" />
                  <g
                     inkscape:label="Capa 1"
                     id="layer1-5"
                     transform="translate(22.989671,8.9703136)">
                    <g
                       transform="translate(392.57143,-514.5642)"
                       id="layer1-7-4"
                       inkscape:label="Capa 1"
                       style="fill:#ffffff;fill-opacity:1" />
                  </g>
                  <g
                     id="g4186"
                     transform="translate(432.8094,518.46393)">
                    <g
                       inkscape:transform-center-y="-9.4924686"
                       inkscape:transform-center-x="5.4653607"
                       inkscape:label="Capa 1"
                       id="layer1-4-3"
                       transform="translate(-509.70748,-515.64674)">
                      <g
                         id="layer1-3-65"
                         inkscape:label="Capa 1"
                         transform="translate(0.41988239,0.03484499)" />
                    </g>
                  </g>
                </g>
                <g
                   transform="matrix(0.56276742,0,0,0.5530208,-229.66043,-264.93961)"
                   id="g4174"
                   style="fill:#11394f;fill-opacity:1;stroke:none;stroke-opacity:1">
                  <g
                     transform="matrix(1.7720341,0,0,1.8032651,533.34876,-1347.2728)"
                     id="layer1-483"
                     inkscape:label="Capa 1"
                     style="fill:#ffffff;fill-opacity:1">
                    <g
                       transform="matrix(0.76566299,0,0,0.76566299,-71.22499,1017.8748)"
                       id="g5173"
                       style="fill:#ffffff;fill-opacity:1">
                      <g
                         transform="translate(-392.98822,-511.27795)"
                         id="layer1-10"
                         inkscape:label="Capa 1"
                         inkscape:transform-center-x="5.4653607"
                         inkscape:transform-center-y="-9.4924686"
                         style="fill:#ffffff;fill-opacity:1">
                        <g
                           transform="translate(0.41988239,0.03484499)"
                           inkscape:label="Capa 1"
                           id="layer1-3-5"
                           style="fill:#ffffff;fill-opacity:1">
                          <g
                             transform="matrix(0.6049833,0,0,0.6049833,215.58501,226.86152)"
                             id="layer1-5-9"
                             inkscape:label="Capa 1"
                             style="fill:#ffffff;fill-opacity:1">
                            <g
                               id="g4414-3"
                               transform="matrix(1.5263052,0,0,1.5263052,376.49864,-1040.1735)"
                               style="fill:#ffffff;fill-opacity:1">
                              <g
                                 transform="matrix(0.42549858,0,0,0.42549858,-116.82388,804.06163)"
                                 id="layer1-0-4"
                                 inkscape:label="Capa 1"
                                 style="fill:#ffffff;fill-opacity:1">
                                <path
                                   style="opacity:1;fill:#ffffff;fill-opacity:1;stroke:none;stroke-width:2.79999995;stroke-miterlimit:4;stroke-dasharray:none;stroke-opacity:0.55026455"
                                   d="M 1.5996094,0 C 1.15641,0 0.80078125,0.35758183 0.80078125,0.80078125 l 0,14.39843775 C 0.80078125,15.642418 1.15641,16 1.5996094,16 l 12.8007816,0 c 0.443199,0 0.798828,-0.357582 0.798828,-0.800781 l 0,-14.39843775 C 15.199219,0.35758183 14.84359,0 14.400391,0 L 1.5996094,0 Z m 6.3945312,3 c 0.8220415,0 1.4890012,0.244617 2.0039063,0.7324219 0.5149051,0.4787714 0.7734371,1.0920227 0.7734371,1.8417969 0,0.3252032 -0.08618,0.6559976 -0.257812,0.9902343 C 10.342037,6.8986898 10.188236,7.1367152 10.052734,7.28125 9.9262665,7.4167514 9.7465878,7.5937447 9.5117188,7.8105469 l -0.068359,0.068359 C 8.8923206,8.3757446 8.6171875,8.8723023 8.6171875,9.3691406 l 0,0.5410156 -1.2734375,0 0,-0.6367187 c 0,-0.4065041 0.084224,-0.7538992 0.2558594,-1.0429687 C 7.7712444,7.9323658 8.0742082,7.5849706 8.5078125,7.1875 8.7517149,6.9616644 8.9240698,6.793948 9.0234375,6.6855469 9.1318386,6.5681124 9.2346167,6.4096728 9.3339844,6.2109375 9.4423855,6.0031688 9.4980469,5.7910209 9.4980469,5.5742188 9.4980469,5.1586813 9.3608464,4.8252015 9.0898438,4.5722656 8.8278745,4.3193298 8.4638786,4.1933594 7.9941406,4.1933594 c -0.7768744,0 -1.3105398,0.4335725 -1.5996094,1.3007812 L 5.2285156,5.0058594 C 5.4182175,4.4909542 5.7443735,4.0295509 6.2050781,3.6230469 6.6748161,3.2075094 7.2714668,3 7.9941406,3 Z m -0.013672,8.15625 c 0.2619692,0 0.4787555,0.09082 0.6503906,0.271484 0.1806684,0.180669 0.2695312,0.397455 0.2695312,0.650391 0,0.252936 -0.088863,0.469722 -0.2695312,0.650391 C 8.4592243,12.909184 8.242438,13 7.9804688,13 7.7184995,13 7.4970747,12.909184 7.3164062,12.728516 7.1447712,12.547847 7.0585938,12.331061 7.0585938,12.078125 c 0,-0.252936 0.086177,-0.469722 0.2578124,-0.650391 0.1806685,-0.180668 0.4020933,-0.271484 0.6640626,-0.271484 z"
                                   transform="matrix(2.4999982,0,0,2.4999981,388.57146,503.79806)"
                                   id="rect4319"
                                   inkscape:connector-curvature="0" />
                              </g>
                            </g>
                          </g>
                        </g>
                      </g>
                    </g>
                  </g>
                  <g
                     transform="matrix(1.4807774,0,0,1.5068752,-45.117133,-265.5641)"
                     id="layer1-35"
                     inkscape:label="Capa 1"
                     style="fill:#ffffff;fill-opacity:1">
                    <g
                       style="fill:#ffffff;fill-opacity:1"
                       inkscape:label="Capa 1"
                       id="layer1-7-2"
                       transform="translate(392.57143,-514.5642)" />
                    <g
                       transform="translate(341.79698,500.25245)"
                       id="g4240-5"
                       style="fill:#ffffff;fill-opacity:1">
                      <g
                         transform="translate(-392.98822,-511.27795)"
                         id="layer1-1-1"
                         inkscape:label="Capa 1"
                         inkscape:transform-center-x="5.4653607"
                         inkscape:transform-center-y="-9.4924686"
                         style="fill:#ffffff;fill-opacity:1">
                        <g
                           style="fill:#ffffff;fill-opacity:1;stroke:#1f2a47;stroke-opacity:1"
                           transform="translate(0.41988239,0.03484499)"
                           inkscape:label="Capa 1"
                           id="layer1-3-1">
                          <g
                             transform="matrix(1.1825573,0,0,1.1825573,-60.162965,-101.39779)"
                             id="text4158"
                             style="font-style:normal;font-weight:normal;font-size:13.75px;line-height:125%;font-family:sans-serif;letter-spacing:0px;word-spacing:0px;fill:#ffffff;fill-opacity:1;stroke:none;stroke-width:1px;stroke-linecap:butt;stroke-linejoin:miter;stroke-opacity:1" />
                        </g>
                      </g>
                    </g>
                  </g>
                </g>
              </g>
            </g>
          </g>
        </g>
      </g>
    </g>
  </g>
</svg>

<svg xmlns="http://www.w3.org/2000/svg" viewBox="0 0 16 16"><g transform="translate(-71.09-24.1)"><path d="m1.6 0c-.443 0-.799.358-.799.801v14.398c0 .443.356.801.799.801h12.801c.443 0 .799-.358.799-.801v-14.398c0-.443-.356-.801-.799-.801h-12.801m6.395 3c.822 0 1.489.245 2 .732.515.479.773 1.092.773 1.842 0 .325-.086.656-.258.99-.172.334-.325.572-.461.717-.126.136-.306.312-.541.529l-.068.068c-.551.497-.826.993-.826 1.49v.541h-1.273v-.637c0-.407.084-.754.256-1.043.172-.298.475-.645.908-1.043.244-.226.416-.394.516-.502.108-.117.211-.276.311-.475.108-.208.164-.42.164-.637 0-.416-.137-.749-.408-1-.262-.253-.626-.379-1.096-.379-.777 0-1.311.434-1.6 1.301l-1.166-.488c.19-.515.516-.976.977-1.383.47-.416 1.066-.623 1.789-.623m-.014 8.156c.262 0 .479.091.65.271.181.181.27.397.27.65 0 .253-.089.47-.27.65-.172.181-.388.271-.65.271-.262 0-.483-.091-.664-.271-.172-.181-.258-.397-.258-.65 0-.253.086-.47.258-.65.181-.181.402-.271.664-.271z" transform="matrix(.75001 0 0 .75 73.08 26.11)" fill="#fff"/></g></svg>
